img/svg/Instagram.svg

<svg width="16" height="16" viewBox="0 0 16 16" xmlns="http://www.w3.org/2000/svg">
<path d="M14.6543 5.25402C14.623 4.54557 14.5085 4.05852 14.3444 3.63648C14.1751 3.18849 13.9146 2.78741 13.5733 2.45399C13.2399 2.11539 12.8362 1.85227 12.3934 1.68562C11.9689 1.5215 11.4844 1.40694 10.776 1.3757C10.0622 1.34182 9.83563 1.33398 8.02538 1.33398C6.21513 1.33398 5.98855 1.34182 5.27745 1.37305C4.569 1.40429 4.08195 1.51896 3.66001 1.68297C3.21193 1.85227 2.81085 2.11274 2.47743 2.45399C2.13882 2.78741 1.87581 3.19114 1.70905 3.63393C1.54494 4.05852 1.43037 4.54292 1.39914 5.25137C1.36526 5.96512 1.35742 6.1917 1.35742 8.00195C1.35742 9.8122 1.36526 10.0388 1.39649 10.7499C1.42773 11.4583 1.54239 11.9454 1.70651 12.3674C1.87581 12.8154 2.13882 13.2165 2.47743 13.5499C2.81085 13.8885 3.21457 14.1516 3.65737 14.3183C4.08195 14.4824 4.56636 14.597 5.27491 14.6282C5.9859 14.6595 6.21259 14.6673 8.02284 14.6673C9.83308 14.6673 10.0597 14.6595 10.7708 14.6282C11.4792 14.597 11.9663 14.4824 12.3882 14.3183C13.2843 13.9718 13.9927 13.2634 14.3392 12.3674C14.5032 11.9428 14.6178 11.4583 14.6491 10.7499C14.6803 10.0388 14.6882 9.8122 14.6882 8.00195C14.6882 6.1917 14.6855 5.96512 14.6543 5.25402ZM13.4536 10.6978C13.4249 11.349 13.3155 11.7006 13.2243 11.935C13.0003 12.5159 12.5393 12.9769 11.9584 13.2009C11.724 13.2921 11.3698 13.4015 10.7212 13.4301C10.018 13.4614 9.80704 13.4691 8.02803 13.4691C6.24902 13.4691 6.03545 13.4614 5.33473 13.4301C4.68357 13.4015 4.33194 13.2921 4.09752 13.2009C3.80846 13.0941 3.54535 12.9248 3.33178 12.7034C3.11039 12.4872 2.94108 12.2267 2.83425 11.9377C2.74309 11.7032 2.63371 11.349 2.60512 10.7004C2.57378 9.99717 2.56605 9.78616 2.56605 8.00714C2.56605 6.22813 2.57378 6.01457 2.60512 5.31395C2.63371 4.66278 2.74309 4.31115 2.83425 4.07673C2.94108 3.78757 3.11039 3.52456 3.33443 3.31089C3.55053 3.08949 3.811 2.92019 4.10016 2.81346C4.33458 2.7223 4.68886 2.61292 5.33738 2.58423C6.04064 2.55299 6.25166 2.54516 8.03057 2.54516C9.81223 2.54516 10.0231 2.55299 10.7239 2.58423C11.375 2.61292 11.7267 2.7223 11.9611 2.81346C12.2501 2.92019 12.5133 3.08949 12.7268 3.31089C12.9482 3.5271 13.1175 3.78757 13.2243 4.07673C13.3155 4.31115 13.4249 4.66532 13.4536 5.31395C13.4848 6.01721 13.4926 6.22813 13.4926 8.00714C13.4926 9.78616 13.4848 9.99453 13.4536 10.6978Z"/>
<path d="M8.02538 4.5768C6.13445 4.5768 4.60023 6.11092 4.60023 8.00196C4.60023 9.893 6.13445 11.4271 8.02538 11.4271C9.91641 11.4271 11.4505 9.893 11.4505 8.00196C11.4505 6.11092 9.91641 4.5768 8.02538 4.5768ZM8.02538 10.2238C6.79864 10.2238 5.80357 9.2288 5.80357 8.00196C5.80357 6.77511 6.79864 5.78015 8.02538 5.78015C9.25222 5.78015 10.2472 6.77511 10.2472 8.00196C10.2472 9.2288 9.25222 10.2238 8.02538 10.2238Z" />
<path d="M12.3857 4.44138C12.3857 4.88296 12.0276 5.241 11.586 5.241C11.1444 5.241 10.7864 4.88296 10.7864 4.44138C10.7864 3.99971 11.1444 3.64177 11.586 3.64177C12.0276 3.64177 12.3857 3.99971 12.3857 4.44138Z" />
</svg>

<svg width="16" height="16" xmlns="http://www.w3.org/2000/svg"><path d="M14.654 5.254c-.031-.708-.146-1.195-.31-1.618-.169-.448-.43-.849-.77-1.182a3.281 3.281 0 00-1.18-.768c-.425-.164-.91-.28-1.618-.31-.714-.034-.94-.042-2.75-.042s-2.037.008-2.749.04c-.708.03-1.195.145-1.617.309-.448.17-.85.43-1.183.771a3.283 3.283 0 00-.768 1.18c-.164.425-.279.909-.31 1.617-.034.714-.042.94-.042 2.751 0 1.81.008 2.037.04 2.748.03.708.145 1.195.31 1.617.169.448.432.85.77 1.183.334.338.738.602 1.18.768.425.164.91.279 1.618.31.71.031.938.04 2.748.04 1.81 0 2.037-.008 2.748-.04.708-.031 1.195-.146 1.617-.31a3.41 3.41 0 001.951-1.95c.164-.425.279-.91.31-1.618.031-.711.04-.938.04-2.748 0-1.81-.004-2.037-.035-2.748zm-1.2 5.444c-.03.651-.139 1.003-.23 1.237a2.211 2.211 0 01-1.266 1.266c-.234.091-.588.2-1.237.23-.703.03-.914.038-2.693.038s-1.993-.008-2.693-.039c-.651-.028-1.003-.138-1.237-.23a2.051 2.051 0 01-.766-.497 2.073 2.073 0 01-.498-.765c-.09-.235-.2-.589-.229-1.238-.031-.703-.039-.914-.039-2.693s.008-1.992.04-2.693c.028-.651.137-1.003.228-1.237.107-.29.276-.552.5-.766a2.07 2.07 0 01.766-.498c.235-.09.589-.2 1.237-.229.704-.031.915-.039 2.694-.039 1.781 0 1.992.008 2.693.04.651.028 1.003.137 1.237.228.29.107.552.276.766.498.221.216.39.477.497.766.091.234.2.588.23 1.237.03.703.039.914.039 2.693 0 1.78-.008 1.988-.04 2.69z"/><path d="M8.025 4.577a3.426 3.426 0 10.002 6.852 3.426 3.426 0 00-.002-6.852zm0 5.647a2.222 2.222 0 11.001-4.445 2.222 2.222 0 010 4.445zM12.386 4.441a.8.8 0 11-1.6 0 .8.8 0 011.6 0z"/></svg>
